icons/linear-ele-food-ice-cream.svg

<svg xmlns="http://www.w3.org/2000/svg" width="32px" height="32px" viewBox="0 0 32 32" version="1.1">
    <title>linear-ele-food-ice-cream</title>
    <g id="linear-ele-food-ice-cream" stroke-width="1" fill-rule="evenodd">
        <path d="M16,1 C19.3137085,1 22,3.6862915 22,7 C22,7.36166663 21.9678754,7.71920814 21.9048182,8.06936169 C24.7886522,8.50341801 27,10.993465 27,14 C27.8191004,14 28.2907912,14.930837 27.806405,15.5913637 L16.806405,30.5913637 C16.4068495,31.1362121 15.5931505,31.1362121 15.193595,30.5913637 L4.193595,15.5913637 C3.70920877,14.930837 4.18089957,14 5,14 C5,10.9931164 7.21186073,8.50284048 10.0972971,8.06745746 C10.0321002,7.71887385 10,7.36151821 10,7 C10,3.6862915 12.6862915,1 16,1 Z M25.026,16 L6.973,16 L16,28.308 L25.026,16 Z M11,10 C8.790861,10 7,11.790861 7,14 L15,14 C15,11.790861 13.209139,10 11,10 Z M21,10 C18.8578046,10 17.1089211,11.6839685 17.0048953,13.8003597 L17,14 L25,14 C25,11.790861 23.209139,10 21,10 Z M16,3 C13.790861,3 12,4.790861 12,7 C12,7.38218218 12.0533543,7.75602123 12.1568755,8.11394772 C13.7578292,8.42448679 15.1300108,9.37301209 16.0008411,10.6834702 C16.8701274,9.37328493 18.2416601,8.42488177 19.840944,8.11186178 C19.9466891,7.7557868 20,7.38205142 20,7 C20,4.790861 18.209139,3 16,3 Z" id="&#24418;&#29366;" fill-rule="nonzero" />
    </g>
</svg>

<svg xmlns="http://www.w3.org/2000/svg" viewBox="0 0 32 32"><path fill="currentColor" d="M16 1a6 6 0 0 1 5.905 7.07A5.998 5.998 0 0 1 27 14a1 1 0 0 1 .806 1.591l-11 15a1 1 0 0 1-1.612 0l-11-15A1 1 0 0 1 5 14a6.001 6.001 0 0 1 5.097-5.933A6 6 0 0 1 16 1m9.026 15H6.973L16 28.308zM11 10a4 4 0 0 0-4 4h8a4 4 0 0 0-4-4m10 0a4 4 0 0 0-3.995 3.8L17 14h8a4 4 0 0 0-4-4m-5-7a4 4 0 0 0-3.843 5.114A5.992 5.992 0 0 1 16 10.684a5.997 5.997 0 0 1 3.84-2.572A4 4 0 0 0 16 3"/></svg>
